Adwaita++-Light/panel/24/riot-tray.svg

<svg height="24" width="24" xmlns="http://www.w3.org/2000/svg">
  <g fill="#444">
    <path d="m7.463225 4.0002283c.7998917-.0106071 1.5915351.3626685 2.0839844 1.0664062.2007601.286871.3332111.6064948.4003906.9394532h2.732422c2.092826 0 3.791015 1.3954526 3.791015 3.4882816 0 1.2468557-.611138 2.2370667-1.541015 2.8417967l1.009765 1.443359c1.254748-1.003283 2.060547-2.540458 2.060547-4.2675777 0-3.0241717-2.462434-5.4765627-5.5-5.4765628h-4.5957027c-.1458061-.0246412-.2935207-.0365093-.4414063-.0351562zm-2.4589844 2.5195312-.00391.00391v.035156c-.0002756-.012969.00398-.026075.00391-.039063zm-.00391.039063v10.9160145c-.047813 3.365899 5.0478124 3.365899 4.9999994 0v-2.488281h.679688l-.04883-.07031a2.50025 2.50025 0 0 1 -.425776-1.931643h-2.4121088v4.6875c.00763.53942-.8064582.53942-.7988282 0v-8.7304685c-.6022332-.1250879-1.1611847-.4650127-1.5410156-1.0078124-.287176-.4103529-.4427261-.8855805-.453125-1.375zm4.9707031.2441406c-.00539.043712-.00206.087156-.00977.1308594-.1160001.6579846-.4805452 1.2320752-1.0273355 1.6152339-.3505167.2456102-.7427818.3776501-1.140625.4238281v3.2128905h.796875 1.9140628a2.50025 2.50025 0 0 1 1.662109-1.181641h-2.166016v-2.9863276h2.5c.875806 0 1.5.6221971 1.5 1.4941409 0 .7451277-.45757 1.3017037-1.136719 1.4492187a2.50025 2.50025 0 0 1 1.583985.748046c.741261-.456195 1.224609-1.2185 1.224609-2.2148427 0-1.6616829-1.330506-2.6914066-2.992187-2.6914066h-2.095703z" opacity=".3"/>
    <path d="m7.4554125 4.0002283c-.4815269.0078894-.9653338.1545349-1.3886719.4511719-.5469387.3830105-.911483.9573977-1.0273437 1.6152343-.1160082.6578366.0311611 1.3200505.4140625 1.8671876.7904825 1.1296442 2.351567 1.4062662 3.4804688.6152343.5467903-.3831587.9113354-.9572493 1.0273437-1.6152343.1158601-.6575403-.0311612-1.3200507-.4140625-1.8671876-.4940515-.7060274-1.289252-1.0795552-2.0917969-1.0664062zm5.1406245 6.9531247a2.50025 2.50025 0 0 0 -1.964843 3.962891l2.792968 3.988281a2.50025 2.50025 0 1 0 4.095703-2.867188l-2.791015-3.988281a2.50025 2.50025 0 0 0 -2.132813-1.095703z"/>
  </g>
</svg>

<svg xmlns="http://www.w3.org/2000/svg" width="24" height="24" version="1.1">
 <defs>
  <style id="current-color-scheme" type="text/css">
   .ColorScheme-Text { color:#444444; } .ColorScheme-Highlight { color:#4285f4; }
  </style>
 </defs>
 <path style="opacity:0.3;fill:currentColor" class="ColorScheme-Text" d="M 7.463225,4.0002283 C 8.2631167,3.9896212 9.0547601,4.3628968 9.5472094,5.0666345 9.7479695,5.3535055 9.8804205,5.6731293 9.9476,6.0060877 h 2.732422 c 2.092826,0 3.791015,1.3954526 3.791015,3.4882816 0,1.2468557 -0.611138,2.2370667 -1.541015,2.8417967 l 1.009765,1.443359 c 1.254748,-1.003283 2.060547,-2.540458 2.060547,-4.2675777 0,-3.0241717 -2.462434,-5.4765627 -5.5,-5.4765628 H 7.9046313 C 7.7588252,4.0107433 7.6111106,3.9988752 7.463225,4.0002283 Z m -2.4589844,2.5195312 -0.00391,0.00391 v 0.035156 c -2.756e-4,-0.012969 0.00398,-0.026075 0.00391,-0.039063 z m -0.00391,0.039063 V 17.474837 c -0.047813,3.365899 5.0478124,3.365899 4.9999994,0 v -2.488281 h 0.679688 l -0.04883,-0.07031 A 2.50025,2.50025 0 0 1 10.205412,12.984603 H 7.7933032 v 4.6875 c 0.00763,0.53942 -0.8064582,0.53942 -0.7988282,0 V 8.9416345 C 6.3922418,8.8165466 5.8332903,8.4766218 5.4534594,7.9338221 5.1662834,7.5234692 5.0107333,7.0482416 5.0003344,6.5588221 Z m 4.9707031,0.2441406 c -0.00539,0.043712 -0.00206,0.087156 -0.00977,0.1308594 C 9.8452636,7.5918071 9.4807185,8.1658977 8.9339282,8.5490564 8.5834115,8.7946666 8.1911464,8.9267065 7.7933032,8.9728845 v 3.2128905 h 0.796875 1.9140628 A 2.50025,2.50025 0 0 1 12.16635,11.004134 H 10.000334 V 8.0178064 h 2.5 c 0.875806,0 1.5,0.6221971 1.5,1.4941409 0,0.7451277 -0.45757,1.3017037 -1.136719,1.4492187 a 2.50025,2.50025 0 0 1 1.583985,0.748046 c 0.741261,-0.456195 1.224609,-1.2185 1.224609,-2.2148427 0,-1.6616829 -1.330506,-2.6914066 -2.992187,-2.6914066 h -2.095703 z"/>
 <path style="fill:currentColor" class="ColorScheme-Text" d="M 7.4554125,4.0002283 C 6.9738856,4.0081177 6.4900787,4.1547632 6.0667406,4.4514002 5.5198019,4.8344107 5.1552576,5.4087979 5.0393969,6.0666345 4.9233887,6.7244711 5.070558,7.386685 5.4534594,7.9338221 6.2439419,9.0634663 7.8050264,9.3400883 8.9339282,8.5490564 9.4807185,8.1658977 9.8452636,7.5918071 9.9612719,6.9338221 10.077132,6.2762818 9.9301107,5.6137714 9.5472094,5.0666345 9.0531579,4.3606071 8.2579574,3.9870793 7.4554125,4.0002283 Z m 5.1406245,6.9531247 a 2.50025,2.50025 0 0 0 -1.964843,3.962891 l 2.792968,3.988281 a 2.50025,2.50025 0 1 0 4.095703,-2.867188 L 14.72885,12.049056 a 2.50025,2.50025 0 0 0 -2.132813,-1.095703 z"/>
</svg>
